exported-svg/corner-right-up.svg

<svg height="24" viewBox="0 0 24 24" width="24" xmlns="http://www.w3.org/2000/svg"><path d="m15 5.70710678-4.1464466 4.14644661c-.1952622.19526211-.5118446.19526211-.7071068 0-.19526214-.19526215-.19526214-.51184463 0-.70710678l5-5c.1952622-.19526215.5118446-.19526215.7071068 0l5 5c.1952621.19526215.1952621.51184463 0 .70710678-.1952622.19526211-.5118446.19526211-.7071068 0l-4.1464466-4.14644661v10.79289322c0 2.4852814-2.0147186 4.5-4.5 4.5h-7c-.27614237 0-.5-.2238576-.5-.5s.22385763-.5.5-.5h7c1.9329966 0 3.5-1.5670034 3.5-3.5z"/></svg>

<?xml version="1.0" encoding="UTF-8"?>
<svg width="24px" height="24px" viewBox="0 0 24 24" version="1.1" xmlns="http://www.w3.org/2000/svg" xmlns:xlink="http://www.w3.org/1999/xlink">
    <!-- Generator: Sketch 55.2 (78181) - https://sketchapp.com -->
    <title>corner-right-up</title>
    <desc>Created with Sketch.</desc>
    <g id="corner-right-up" stroke="none" stroke-width="1" fill="none" fill-rule="evenodd">
        <path d="M15,5.70710678 L10.8535534,9.85355339 C10.6582912,10.0488155 10.3417088,10.0488155 10.1464466,9.85355339 C9.95118446,9.65829124 9.95118446,9.34170876 10.1464466,9.14644661 L15.1464466,4.14644661 C15.3417088,3.95118446 15.6582912,3.95118446 15.8535534,4.14644661 L20.8535534,9.14644661 C21.0488155,9.34170876 21.0488155,9.65829124 20.8535534,9.85355339 C20.6582912,10.0488155 20.3417088,10.0488155 20.1464466,9.85355339 L16,5.70710678 L16,16.5 C16,18.9852814 13.9852814,21 11.5,21 L4.5,21 C4.22385763,21 4,20.7761424 4,20.5 C4,20.2238576 4.22385763,20 4.5,20 L11.5,20 C13.4329966,20 15,18.4329966 15,16.5 L15,5.70710678 Z" id="Combined-Shape" fill="#000000" fill-rule="nonzero"></path>
    </g>
</svg>
